logos/hermes.svg

<?xml version="1.0" encoding="UTF-8"?>
<svg width="256px" height="197px" viewBox="0 0 256 197" version="1.1" xmlns="http://www.w3.org/2000/svg" xmlns:xlink="http://www.w3.org/1999/xlink" preserveAspectRatio="xMidYMid">
    <title>Hermes</title>
    <g>
        <path d="M76.1561054,99.9805886 L78.5978241,89.3149534 C79.6368533,84.8782986 80.5667845,76.1608433 81.11747,72.1086292 C75.2157839,69.7032765 67.2464297,71.0696 56.9028936,69.9006921 C49.0301444,68.9467726 41.5898463,65.7778902 35.4469398,60.7624299 L35.4469398,62.2378514 C37.6007969,81.8740466 53.068177,97.3996722 72.696138,99.6273186 L76.1561054,99.9805886 Z" fill-opacity="0.2" fill="#2BB673"></path>
        <path d="M41.1616006,41.2702414 C33.272068,40.3843937 25.7940706,37.284771 19.5913536,32.3293948 L19.5913536,32.3657608 C21.7542965,51.9889691 37.2100298,67.5029283 56.8249664,69.7396426 L82.1720847,71.6410661 C83.4085295,56.1855061 76.2392277,45.2133574 41.1616006,41.2702414 Z" fill-opacity="0.6" fill="#2BB673"></path>
        <path d="M240.249993,3.9587014 L213.900212,3.9587014 C206.382222,3.95724062 199.893881,9.22901792 198.356334,16.5881018 L188.127091,66.5082616 C187.436159,69.8605798 184.489651,72.2693877 181.066888,72.280069 L141.401946,72.3943623 C139.223085,72.4027084 137.156942,71.4268027 135.779392,69.7386485 C134.401842,68.0504943 133.86018,65.8305983 134.305377,63.6976875 L134.305377,63.6976875 C140.742163,32.8592997 118.018593,3.89635965 74.1403887,3.89635965 L3.89681692,3.89635965 C6.06629496,23.5280829 21.5363034,39.043382 41.1616006,41.2702414 C87.4971095,46.4653876 83.8864829,65.2042799 78.5978241,88.2759242 L58.1029723,177.757122 C57.2977308,181.271443 58.1376737,184.961177 60.3847616,187.780656 C62.6318495,190.600134 66.0411938,192.241191 69.6465872,192.241191 L94.5573132,192.241191 C102.067726,192.244248 108.552121,186.982588 110.095995,179.63257 L120.860338,128.398038 C121.572073,125.071136 124.507979,122.691256 127.910152,122.683377 L167.82446,122.569084 C170.000414,122.563328 172.063124,123.538369 173.439817,125.223458 C174.81651,126.908547 175.36061,129.124271 174.92103,131.255369 L165.361961,177.544121 C164.556975,181.05895 165.396859,184.749059 167.643727,187.569273 C169.890595,190.389487 173.299744,192.03266 176.905576,192.033384 L203.260552,192.033384 C210.777466,192.029873 217.262411,186.756926 218.799235,179.398788 L251.793608,18.4895253 C252.615435,14.9684532 251.783284,11.2648563 249.53421,8.43377625 C247.285136,5.60269621 243.865699,3.95449744 240.249993,3.9587014 Z" fill="#2BB673"></path>
        <path d="M74.1403887,0 C96.150167,0 114.251333,7.05741007 125.938788,19.5733524 C137.075028,31.4990053 141.501207,47.5427033 138.221288,63.995124 L138.119537,64.4938035 L138.100431,64.5933307 L138.079462,64.7268406 C137.969503,65.5378434 138.163058,66.3600258 138.62002,67.0356938 L138.708778,67.1606261 L138.79822,67.2752565 C139.402284,68.0155228 140.293922,68.4583363 141.247281,68.4955001 L141.390719,68.4980188 L181.054728,68.3837284 C182.590666,68.3789352 183.918663,67.3270872 184.282015,65.8501514 L184.310045,65.7261027 L194.542331,15.7912351 C196.438072,6.71774478 204.376926,0.192093912 213.619732,0.0642534271 L213.900212,0.0623417544 L240.245463,0.062344388 C245.051068,0.0567569379 249.595812,2.24736425 252.585038,6.01012926 C255.520885,9.70570203 256.640168,14.5198832 255.6444,19.1242128 L255.600154,19.3202292 L222.613292,180.195394 C220.737513,189.176415 212.942458,195.662992 203.817951,195.921718 L203.541049,195.927648 L203.260552,195.929744 L176.904793,195.929744 C172.112832,195.928781 167.582253,193.745091 164.596284,189.997175 C161.663635,186.316186 160.534611,181.520071 161.508716,176.924724 L161.546126,176.75342 L171.105005,130.46824 C171.287772,129.582178 171.101525,128.66437 170.5974,127.923063 L170.510445,127.801182 L170.422433,127.688618 C169.818236,126.949073 168.927299,126.506312 167.978364,126.46811 L167.835617,126.465428 L127.919175,126.579727 C126.394937,126.583257 125.073793,127.619968 124.702895,129.073569 L124.673448,129.19917 L113.909143,180.433524 C112.005477,189.49642 104.070851,196.01003 94.8375043,196.137585 L94.5573132,196.137585 L69.6465872,196.137585 C64.8546088,196.137585 60.3238548,193.955841 57.3377428,190.20909 C54.4044888,186.528662 53.2752621,181.732523 54.2497203,177.137645 L54.3049607,176.887222 L71.1461542,103.35927 C50.4472415,100.505468 34.212951,84.0706697 31.647362,63.293615 L31.5915594,62.8153912 C23.2952883,55.7117251 17.5601813,45.713527 15.9178628,34.3581915 C7.23424819,26.9299926 1.35101096,16.3322302 0.0240331039,4.32433631 C-0.226308038,2.05898588 1.51046338,0.0734426811 3.77071795,0.00198998646 L3.89681692,0 L74.1403887,0 Z M74.1403887,7.7927193 L8.49815791,7.7927193 L8.58875676,8.18368352 C10.5940014,16.5881903 15.3410509,23.9067024 21.8405619,29.1475265 L21.9325506,29.2147286 L21.9325506,29.2147286 L22.0233554,29.2852224 C23.818937,30.7197199 25.7322926,31.9828357 27.7379906,33.0640237 L28.2024716,33.3102943 L28.560865,33.4947678 L28.8850265,33.6575304 C29.0575875,33.7431501 29.2307751,33.8274534 29.4045738,33.9104339 L29.6757421,34.0384885 C33.231964,35.7006826 37.0878523,36.8357387 41.1442141,37.3442283 L41.7416586,37.4145658 L42.7134865,37.5272134 L42.7134865,37.5272134 L43.6676096,37.6429881 L43.6676096,37.6429881 L44.3195108,37.7258438 L44.3195108,37.7258438 C75.9722678,41.7761709 87.6242664,52.3488961 86.0560355,71.9517821 C85.9918669,72.7538893 85.6890148,73.4799675 85.2226569,74.0656543 L85.1429522,74.8056678 L85.0914285,75.2438909 L85.0362572,75.6856156 L84.946398,76.3566201 L84.847656,77.0402655 L84.7396259,77.7394091 L84.6622458,78.215526 L84.5804374,78.7006477 L84.4491594,79.447066 L84.3557553,79.9584034 L84.2065208,80.7481139 L83.9898716,81.8478878 L83.7521477,83.0073862 L83.5594466,83.9202787 L83.3961234,84.6751684 L83.3176229,85.1959773 L83.2241137,85.7926346 L83.0848726,86.6458217 L82.9925824,87.1870724 L82.9006063,87.7065508 L82.7630145,88.4454329 L82.6713903,88.9114559 L82.5338616,89.5712001 L82.4419696,89.9851613 L79.954206,100.8501 C79.8502597,101.304146 79.670033,101.722988 79.429496,102.095176 L61.9009091,178.627349 C61.3606658,180.985136 61.9241905,183.460609 63.4317804,185.352221 C64.8971284,187.19083 67.099939,188.283051 69.4452274,188.342312 L69.6465872,188.344856 L94.558899,188.344856 C100.160379,188.347112 105.00542,184.467949 106.241244,179.022043 L106.282886,178.831438 L117.050193,127.582922 C118.132321,122.524667 122.554863,118.888715 127.707816,118.789102 L127.898995,118.787034 L167.814153,118.672738 C171.163339,118.663879 174.338222,120.164643 176.457201,122.758299 C178.529092,125.294317 179.375794,128.611183 178.779751,131.824461 L178.736873,132.043377 L169.177804,178.332129 L169.116383,178.616407 C168.652774,180.913626 169.226482,183.302931 170.69117,185.141371 C172.157055,186.981313 174.360161,188.07467 176.704316,188.134439 L176.905576,188.137024 L203.258732,188.137025 C208.866254,188.134406 213.712788,184.246038 214.940921,178.806503 L214.982291,178.616126 L247.976665,17.7068627 L248.043777,17.401141 C248.517922,15.100083 247.949192,12.7025499 246.483381,10.8574232 C245.016373,9.01078914 242.807176,7.91428308 240.452192,7.85738527 L240.249993,7.85506105 L213.899455,7.85506098 C208.291728,7.85397137 203.443195,11.7410203 202.21476,17.1799064 L202.173381,17.3702607 L191.94324,67.2947923 C190.892847,72.3911655 186.454723,76.0704455 181.268195,76.1742152 L181.078115,76.1764125 L141.416871,76.2906933 C138.062365,76.3035428 134.881397,74.8010692 132.760565,72.2020404 C130.752927,69.7417289 129.89612,66.5443807 130.396041,63.4182252 L130.433123,63.2002471 L130.480694,62.9537667 L130.577939,62.476673 C133.373909,48.4602017 129.650935,34.9665018 120.243221,24.8919039 C110.210112,14.1475793 94.4077218,7.91810658 74.7376338,7.79459156 L74.1403887,7.7927193 Z M40.7973115,68.9543104 L40.8290498,69.0576463 C45.2356761,83.2059114 57.5557294,93.8022752 72.6341462,95.6963828 L72.8936158,95.7273224 L74.9670369,86.6743598 L75.3576624,84.9446844 L75.7270485,83.2693618 L75.761072,83.0437547 L75.8948247,82.1196401 L75.9853591,81.4751638 L76.1385586,80.352022 L76.8029633,75.1451922 L66.1612259,74.3466982 L65.2899654,74.3270773 L64.1721594,74.2964867 L63.3875633,74.2709791 L62.4012396,74.2327039 L61.6982545,74.2002225 L60.7980777,74.1510355 L60.1427021,74.1091601 L59.497322,74.0625176 L58.8556922,74.0106637 L58.4269384,73.9729796 L57.7776809,73.9114518 L57.1155199,73.843527 L56.4342103,73.7687607 C51.8086069,73.208289 47.3195871,71.9482525 43.1139985,70.051195 L42.664491,69.8455041 C42.2443976,69.6565864 41.8276998,69.461496 41.4144925,69.2604112 L40.7973115,68.9543104 Z M25.4722591,40.6629288 L25.6492296,41.1476798 C27.9967253,47.4454443 31.9420132,52.9532124 36.9981275,57.1821838 C37.2614705,57.2977925 37.5183993,57.4464976 37.7646902,57.6299904 L37.9111545,57.7442741 L38.2162209,57.990738 C40.5592476,59.8637812 43.1046516,61.4440347 45.7931414,62.7069451 C49.2197647,64.2578066 52.9175797,65.3219024 56.7996809,65.8122844 L57.2047316,65.8609464 L66.5269641,66.5596936 L68.9958043,66.607993 L70.2863272,66.6369209 L71.1941465,66.6622819 L72.0537055,66.691409 L72.8679121,66.7248641 L73.6396738,66.7632093 L74.1320371,66.7917672 L74.839519,66.8395118 L75.2917214,66.8748562 L75.7293672,66.9132068 L76.1533179,66.95473 L76.564435,66.9995924 L76.9635801,67.0479606 L77.1589324,67.0735113 L77.6449436,67.1425623 C77.4608389,64.3351518 76.8509135,61.944922 75.7740924,59.851976 C72.061323,52.6357116 61.9681916,47.7542363 42.5608826,45.3581788 L41.5076133,45.2316519 L41.5076133,45.2316519 L40.7113709,45.1405156 L40.7113709,45.1405156 C36.0431639,44.6147644 31.5071125,43.3796558 27.2530172,41.4973266 L26.6748802,41.2366103 L26.6748802,41.2366103 L26.1426085,40.9883112 L26.1426085,40.9883112 L25.6599066,40.7559226 L25.6599066,40.7559226 L25.4722591,40.6629288 Z" fill="#3D3D3D"></path>
    </g>
</svg>

<svg preserveAspectRatio="xMidYMid" viewBox="0 0 256 197" xmlns="http://www.w3.org/2000/svg">
  <path fill="#2BB673" fill-opacity=".2" d="m76.156 99.98 2.442-10.665c1.039-4.437 1.969-13.154 2.52-17.206-5.902-2.406-13.872-1.04-24.215-2.208a41.894 41.894 0 0 1-21.456-9.139v1.476C37.6 81.874 53.068 97.4 72.697 99.628l3.46.353Z"/>
  <path fill="#2BB673" fill-opacity=".6" d="M41.162 41.27a42.08 42.08 0 0 1-21.57-8.94v.036C21.753 51.989 37.21 67.503 56.824 69.74l25.347 1.901c1.237-15.455-5.933-26.428-41.01-30.37Z"/>
  <path fill="#2BB673" d="M240.25 3.959H213.9a15.876 15.876 0 0 0-15.544 12.63l-10.229 49.92a7.232 7.232 0 0 1-7.06 5.771l-39.665.114a7.221 7.221 0 0 1-7.097-8.696C140.742 32.859 118.02 3.896 74.14 3.896H3.897c2.17 19.632 17.64 35.147 37.265 37.374 46.335 5.195 42.724 23.934 37.436 47.006l-20.495 89.481a11.84 11.84 0 0 0 11.544 14.484h24.91a15.871 15.871 0 0 0 15.539-12.608l10.764-51.235a7.226 7.226 0 0 1 7.05-5.715l39.914-.114a7.226 7.226 0 0 1 7.097 8.686l-9.559 46.29a11.845 11.845 0 0 0 11.544 14.488h26.355a15.882 15.882 0 0 0 15.538-12.634l32.995-160.91A11.84 11.84 0 0 0 240.25 3.96Z"/>
  <path fill="#3D3D3D" d="M74.14 0c22.01 0 40.111 7.057 51.799 19.573C137.075 31.5 141.5 47.543 138.22 63.995l-.101.499-.02.1-.02.133c-.11.81.083 1.633.54 2.309l.089.125.09.114a3.326 3.326 0 0 0 2.448 1.22l.144.003 39.664-.114a3.334 3.334 0 0 0 3.227-2.534l.028-.124 10.232-49.935A19.773 19.773 0 0 1 213.62.064l.28-.002h26.345a15.736 15.736 0 0 1 15.4 19.062l-.045.196-32.987 160.875a19.778 19.778 0 0 1-18.795 15.727l-.277.006-.28.002h-26.356a15.741 15.741 0 0 1-15.396-19.005l.037-.172 9.559-46.285a3.33 3.33 0 0 0-.508-2.545l-.087-.122-.088-.112a3.33 3.33 0 0 0-2.444-1.22l-.142-.004-39.917.115a3.327 3.327 0 0 0-3.216 2.494l-.03.125-10.764 51.235a19.77 19.77 0 0 1-19.071 15.704H69.647a15.739 15.739 0 0 1-15.397-19l.055-.25 16.841-73.529c-20.699-2.854-36.933-19.288-39.499-40.065l-.055-.479a46.122 46.122 0 0 1-15.674-28.457C7.234 26.93 1.35 16.332.024 4.324A3.896 3.896 0 0 1 3.771.002L3.897 0H74.14Zm0 7.793H8.498l.09.39a38.378 38.378 0 0 0 13.253 20.965l.092.067.09.07a38.18 38.18 0 0 0 5.715 3.779l.464.246.359.185.324.163c.173.085.346.17.52.252l.27.128a38.306 38.306 0 0 0 11.47 3.306l.597.07.971.113.955.116.652.083c31.652 4.05 43.304 14.623 41.736 34.226a3.878 3.878 0 0 1-.833 2.114l-.08.74-.052.438-.055.442-.09.67-.098.684-.108.7-.078.476-.082.485-.13.746-.094.511-.15.79-.216 1.1-.238 1.16-.193.912-.163.755-.078.521-.094.597-.14.853-.091.541-.092.52-.138.738-.092.466-.137.66-.092.414-2.488 10.865a3.889 3.889 0 0 1-.525 1.245l-17.528 76.532a7.943 7.943 0 0 0 7.544 9.715l.202.003h24.912a11.975 11.975 0 0 0 11.682-9.323l.042-.19 10.767-51.25a11.122 11.122 0 0 1 10.658-8.793l.191-.002 39.915-.114a11.123 11.123 0 0 1 10.966 13.151l-.043.22-9.56 46.288-.06.284a7.949 7.949 0 0 0 7.587 9.518l.202.003h26.353a11.982 11.982 0 0 0 11.682-9.33l.041-.19 32.995-160.91.067-.306a7.943 7.943 0 0 0-7.592-9.544l-.202-.002H213.9a11.977 11.977 0 0 0-11.685 9.325l-.042.19-10.23 49.925a11.128 11.128 0 0 1-10.675 8.88l-.19.001-39.661.115a11.118 11.118 0 0 1-11.021-12.873l.037-.218.048-.246.097-.477c2.796-14.017-.927-27.51-10.335-37.585C110.21 14.148 94.408 7.918 74.738 7.795l-.598-.002ZM40.797 68.954l.032.104c4.407 14.148 16.727 24.744 31.805 26.638l.26.031 2.073-9.053.39-1.73.37-1.675.034-.225.134-.924.09-.645.154-1.123.664-5.207-10.642-.798-.871-.02-1.118-.03-.784-.026-.987-.038-.703-.033-.9-.049-.655-.042-.646-.046-.641-.052-.43-.038-.648-.062-.662-.067-.682-.075a45.788 45.788 0 0 1-13.32-3.718l-.45-.205a50.8 50.8 0 0 1-1.25-.586l-.617-.306ZM25.472 40.663l.177.485A38.404 38.404 0 0 0 37 57.182c.262.116.52.264.766.448l.146.114.305.247a38.031 38.031 0 0 0 7.577 4.716A38.309 38.309 0 0 0 56.8 65.812l.405.049 9.322.699 2.469.048 1.29.029.908.025.86.03.814.033.772.038.492.029.708.048.452.035.437.038.424.042.411.045.4.048.195.026.486.069c-.184-2.808-.794-5.198-1.87-7.291-3.714-7.216-13.807-12.098-33.214-14.494l-1.053-.126-.797-.091a45.975 45.975 0 0 1-13.458-3.644l-.578-.26-.532-.249-.483-.232-.188-.093Z"/>
</svg>
